svg/fluentui-system-icons/ic_fluent_document_print_24_regular.svg

<svg width="24" height="24" viewBox="0 0 24 24" fill="none" xmlns="http://www.w3.org/2000/svg">
<path d="M18.5 20C18.5 20.275 18.276 20.5 18 20.5H12.7324C12.3866 21.0978 11.7403 21.5 11 21.5H10.9888C10.9733 21.6717 10.9421 21.8389 10.8965 22H18C19.104 22 20 21.104 20 20V9.828C20 9.298 19.789 8.789 19.414 8.414L13.585 2.586C13.57 2.57105 13.5531 2.55808 13.5363 2.5452C13.5238 2.53567 13.5115 2.5262 13.5 2.516C13.429 2.452 13.359 2.389 13.281 2.336C13.2557 2.31894 13.2281 2.30548 13.2005 2.29207C13.1845 2.28426 13.1685 2.27647 13.153 2.268C13.1363 2.25859 13.1197 2.24897 13.103 2.23933C13.0488 2.20797 12.9944 2.17648 12.937 2.152C12.74 2.07 12.528 2.029 12.313 2.014C12.2933 2.01274 12.2738 2.01008 12.2542 2.00741C12.2271 2.00371 12.1999 2 12.172 2H6C4.896 2 4 2.896 4 4V11.1035C4.23842 11.0361 4.48999 11 4.75 11H5.5V4C5.5 3.725 5.724 3.5 6 3.5H12V8C12 9.104 12.896 10 14 10H18.5V20ZM13.5 4.621L17.378 8.5H14C13.724 8.5 13.5 8.275 13.5 8V4.621ZM3 13.75C3 12.7835 3.7835 12 4.75 12H8.25C9.2165 12 10 12.7835 10 13.75V14.5H10.5C11.3284 14.5 12 15.1716 12 16V19.5C12 20.0523 11.5523 20.5 11 20.5H10V21.25C10 22.2165 9.2165 23 8.25 23H4.75C3.7835 23 3 22.2165 3 21.25V20.5H2C1.44771 20.5 1 20.0523 1 19.5V16C1 15.1716 1.67157 14.5 2.5 14.5H3V13.75ZM8.5 13.75C8.5 13.6119 8.38807 13.5 8.25 13.5H4.75C4.61193 13.5 4.5 13.6119 4.5 13.75V14.5H8.5V13.75ZM4.5 19.25V21.25C4.5 21.3881 4.61193 21.5 4.75 21.5H8.25C8.38807 21.5 8.5 21.3881 8.5 21.25V19.25C8.5 19.1119 8.38807 19 8.25 19H4.75C4.61193 19 4.5 19.1119 4.5 19.25Z" fill="#212121"/>
</svg>

<svg xmlns="http://www.w3.org/2000/svg" width="24" height="24"><path d="M18.5 20a.5.5 0 0 1-.5.5h-5.268a2 2 0 0 1-1.732 1h-.011a2.74 2.74 0 0 1-.093.5H18a2 2 0 0 0 2-2V9.828a2 2 0 0 0-.586-1.414l-5.829-5.828a.491.491 0 0 0-.049-.04.63.63 0 0 1-.036-.03 2.072 2.072 0 0 0-.219-.18.652.652 0 0 0-.08-.044l-.048-.024-.05-.029c-.054-.031-.109-.063-.166-.087a1.977 1.977 0 0 0-.624-.138.56.56 0 0 1-.059-.007.605.605 0 0 0-.082-.007H6a2 2 0 0 0-2 2v7.104c.238-.068.49-.104.75-.104h.75V4a.5.5 0 0 1 .5-.5h6V8a2 2 0 0 0 2 2h4.5v10Zm-5-15.379L17.378 8.5H14a.5.5 0 0 1-.5-.5V4.621ZM3 13.75c0-.966.784-1.75 1.75-1.75h3.5c.966 0 1.75.784 1.75 1.75v.75h.5A1.5 1.5 0 0 1 12 16v3.5a1 1 0 0 1-1 1h-1v.75A1.75 1.75 0 0 1 8.25 23h-3.5A1.75 1.75 0 0 1 3 21.25v-.75H2a1 1 0 0 1-1-1V16a1.5 1.5 0 0 1 1.5-1.5H3v-.75Zm5.5 0a.25.25 0 0 0-.25-.25h-3.5a.25.25 0 0 0-.25.25v.75h4v-.75Zm-4 5.5v2c0 .138.112.25.25.25h3.5a.25.25 0 0 0 .25-.25v-2a.25.25 0 0 0-.25-.25h-3.5a.25.25 0 0 0-.25.25Z"/></svg>
